;START_OF_HEADER
;HEADER_VERSION:0.1
;FLAVOR:Griffin
;GENERATOR.NAME:Cura_SteamEngine
;GENERATOR.VERSION:4.1.0
;GENERATOR.BUILD_DATE:2019-05-28
;TARGET_MACHINE.NAME:Ultimaker 3
;EXTRUDER_TRAIN.0.INITIAL_TEMPERATURE:205
;EXTRUDER_TRAIN.0.MATERIAL.VOLUME_USED:7749
;EXTRUDER_TRAIN.0.MATERIAL.GUID:506c9f0d-e3aa-4bd4-b2d2-23e2425b1aa9
;EXTRUDER_TRAIN.0.NOZZLE.DIAMETER:0.4
;EXTRUDER_TRAIN.0.NOZZLE.NAME:AA 0.4
;BUILD_PLATE.TYPE:glass
;BUILD_PLATE.INITIAL_TEMPERATURE:60
;BUILD_VOLUME.TEMPERATURE:35
;PRINT.TIME:5009
;PRINT.GROUPS:1
;PRINT.SIZE.MIN.X:9
;PRINT.SIZE.MIN.Y:6
;PRINT.SIZE.MIN.Z:0.27
;PRINT.SIZE.MAX.X:152.555
;PRINT.SIZE.MAX.Y:134.774
;PRINT.SIZE.MAX.Z:4.92
;END_OF_HEADER
;Generated with Cura_SteamEngine 4.1.0
T0
M82 ;absolute extrusion mode

G92 E0
M109 S205
G0 F15000 X9 Y6 Z2
G280
G1 F1500 E-6.5
;LAYER_COUNT:32
;LAYER:0
M107
M204 S625
M205 X6 Y6
G0 F3750 X83.18 Y83.026 Z0.27
M204 S500
M205 X5 Y5
;TYPE:SKIRT
G1 F1500 E0
G1 F1200 X83.734 Y82.529 E0.01323
G1 X84.133 Y82.231 E0.02208
G1 X84.948 Y81.666 E0.03971
G1 X85.581 Y81.275 E0.05294
G1 X86.253 Y80.955 E0.06617
G1 X86.955 Y80.708 E0.0794
G1 X87.478 Y80.578 E0.08898
G1 X88.449 Y80.375 E0.10661
G1 X89.185 Y80.262 E0.11985
G1 X89.867 Y80.228 E0.13198
G1 X143.112 Y80.226 E1.07847
G1 X143.855 Y80.266 E1.09169
G1 X144.452 Y80.357 E1.10243
G1 X145.401 Y80.544 E1.11962
G1 X146.122 Y80.727 E1.13284
G1 X146.82 Y80.986 E1.14608
G1 X147.486 Y81.318 E1.15931
G1 X147.864 Y81.55 E1.16719
G1 X148.679 Y82.085 E1.18452
G1 X149.278 Y82.526 E1.19774
G1 X149.827 Y83.029 E1.21098
G1 X150.318 Y83.588 E1.2242
G1 X150.607 Y83.982 E1.23289
G1 X151.138 Y84.763 E1.24968
G1 X151.523 Y85.4 E1.26291
G1 X151.837 Y86.074 E1.27613
G1 X152.077 Y86.779 E1.28936
G1 X152.178 Y87.182 E1.29675
G1 X152.388 Y88.145 E1.31427
G1 X152.507 Y88.88 E1.32751
G1 X152.547 Y89.615 E1.34059
G1 X152.555 Y97.324 E1.47763
G1 X152.516 Y98.067 E1.49085
G1 X152.427 Y98.657 E1.50146
G1 X152.247 Y99.58 E1.51817
G1 X152.065 Y100.302 E1.53141
G1 X151.987 Y100.514 E1.53543
G1 X152.077 Y100.779 E1.5404
G1 X152.178 Y101.182 E1.54779
G1 X152.388 Y102.145 E1.56531
G1 X152.507 Y102.88 E1.57854
G1 X152.547 Y103.615 E1.59163
G1 X152.555 Y111.324 E1.72866
G1 X152.516 Y112.067 E1.74189
G1 X152.427 Y112.657 E1.75249
G1 X152.247 Y113.58 E1.76921
G1 X152.065 Y114.302 E1.78245
G1 X151.987 Y114.514 E1.78646
G1 X152.077 Y114.777 E1.7914
G1 X152.178 Y115.182 E1.79882
G1 X152.388 Y116.145 E1.81634
G1 X152.507 Y116.88 E1.82958
G1 X152.547 Y117.615 E1.84266
G1 X152.555 Y125.324 E1.9797
G1 X152.516 Y126.067 E1.99292
G1 X152.427 Y126.657 E2.00353
G1 X152.247 Y127.58 E2.02025
G1 X152.065 Y128.302 E2.03348
G1 X151.808 Y129.001 E2.04672
G1 X151.476 Y129.667 E2.05995
G1 X151.276 Y129.999 E2.06684
G1 X150.75 Y130.818 E2.08414
G1 X150.315 Y131.422 E2.09737
G1 X149.817 Y131.975 E2.1106
G1 X149.263 Y132.472 E2.12383
G1 X148.869 Y132.767 E2.13258
G1 X148.053 Y133.333 E2.15023
G1 X147.419 Y133.724 E2.16347
G1 X146.747 Y134.045 E2.17671
G1 X146.045 Y134.291 E2.18994
G1 X145.523 Y134.422 E2.1995
G1 X144.553 Y134.625 E2.21712
G1 X143.817 Y134.738 E2.23035
G1 X143.133 Y134.772 E2.24253
G1 X89.888 Y134.774 E3.18901
G1 X89.145 Y134.734 E3.20224
G1 X88.548 Y134.643 E3.21297
G1 X87.599 Y134.456 E3.23017
G1 X86.878 Y134.273 E3.24339
G1 X86.18 Y134.014 E3.25662
G1 X85.514 Y133.682 E3.26985
G1 X85.133 Y133.448 E3.2778
G1 X84.319 Y132.913 E3.29511
G1 X83.72 Y132.472 E3.30834
G1 X83.171 Y131.968 E3.32158
G1 X82.68 Y131.409 E3.33481
G1 X82.395 Y131.02 E3.34338
G1 X81.863 Y130.238 E3.36019
G1 X81.478 Y129.601 E3.37343
G1 X81.164 Y128.926 E3.38666
G1 X80.923 Y128.222 E3.39989
G1 X80.822 Y127.818 E3.40729
G1 X80.612 Y126.856 E3.42479
G1 X80.493 Y126.121 E3.43803
G1 X80.453 Y125.385 E3.45113
G1 X80.445 Y117.676 E3.58816
G1 X80.484 Y116.933 E3.60139
G1 X80.573 Y116.344 E3.61198
G1 X80.753 Y115.42 E3.62871
G1 X80.934 Y114.698 E3.64194
G1 X81.013 Y114.485 E3.64598
G1 X80.923 Y114.222 E3.65092
G1 X80.822 Y113.818 E3.65833
G1 X80.612 Y112.856 E3.67583
G1 X80.493 Y112.121 E3.68907
G1 X80.453 Y111.385 E3.70217
G1 X80.445 Y103.676 E3.8392
G1 X80.484 Y102.933 E3.85243
G1 X80.573 Y102.343 E3.86303
G1 X80.753 Y101.42 E3.87975
G1 X80.935 Y100.698 E3.89299
G1 X81.013 Y100.485 E3.89702
G1 X80.923 Y100.222 E3.90196
G1 X80.822 Y99.818 E3.90936
G1 X80.612 Y98.856 E3.92687
G1 X80.493 Y98.121 E3.9401
G1 X80.453 Y97.385 E3.9532
G1 X80.445 Y89.676 E4.09024
G1 X80.484 Y88.933 E4.10346
G1 X80.573 Y88.343 E4.11407
G1 X80.753 Y87.42 E4.13079
G1 X80.935 Y86.698 E4.14402
G1 X81.192 Y85.999 E4.15726
G1 X81.524 Y85.333 E4.17049
G1 X81.722 Y85.004 E4.17732
G1 X82.248 Y84.184 E4.19463
G1 X82.683 Y83.58 E4.20786
G1 X83.18 Y83.026 E4.22109
M204 S625
M205 X6 Y6
G0 F3750 X83.509 Y83.292
M204 S500
M205 X5 Y5
G1 F1200 X84.049 Y82.815 E4.2339
G1 X84.372 Y82.576 E4.24104
G1 X85.187 Y82.011 E4.25867
G1 X85.802 Y81.633 E4.27151
G1 X86.454 Y81.326 E4.28432
G1 X87.137 Y81.093 E4.29714
G1 X87.564 Y80.989 E4.30496
G1 X88.535 Y80.786 E4.32259
G1 X89.248 Y80.677 E4.33541
G1 X89.867 Y80.648 E4.34643
G1 X143.112 Y80.646 E5.29291
G1 X143.832 Y80.686 E5.30573
G1 X144.371 Y80.769 E5.31542
G1 X145.32 Y80.956 E5.33261
G1 X146.019 Y81.134 E5.34544
G1 X146.693 Y81.389 E5.35825
G1 X147.633 Y81.901 E5.37727
G1 X148.448 Y82.436 E5.3946
G1 X149.029 Y82.864 E5.40743
G1 X149.558 Y83.355 E5.42026
G1 X150.03 Y83.901 E5.43309
G1 X150.26 Y84.218 E5.44005
G1 X150.791 Y84.999 E5.45684
G1 X151.162 Y85.617 E5.46965
G1 X151.464 Y86.272 E5.48247
G1 X151.768 Y87.272 E5.50105
G1 X151.978 Y88.235 E5.51857
G1 X152.092 Y88.947 E5.53139
G1 X152.127 Y89.615 E5.54328
G1 X152.135 Y97.324 E5.68032
G1 X152.096 Y98.045 E5.69315
G1 X152.015 Y98.577 E5.70272
G1 X151.835 Y99.5 E5.71944
G1 X151.658 Y100.199 E5.73225
G1 X151.538 Y100.517 E5.73829
G1 X151.768 Y101.272 E5.75232
G1 X151.978 Y102.235 E5.76985
G1 X152.092 Y102.947 E5.78266
G1 X152.127 Y103.615 E5.79455
G1 X152.135 Y111.324 E5.93159
G1 X152.096 Y112.045 E5.94442
G1 X152.015 Y112.577 E5.95399
G1 X151.835 Y113.5 E5.97071
G1 X151.658 Y114.199 E5.98352
G1 X151.538 Y114.518 E5.98958
G1 X151.768 Y115.272 E6.00359
G1 X151.978 Y116.235 E6.02112
G1 X152.092 Y116.947 E6.03393
G1 X152.127 Y117.615 E6.04582
G1 X152.135 Y125.324 E6.18286
G1 X152.096 Y126.045 E6.19569
G1 X152.015 Y126.577 E6.20526
G1 X151.835 Y127.5 E6.22198
G1 X151.658 Y128.199 E6.23479
G1 X151.404 Y128.875 E6.24763
G1 X150.923 Y129.772 E6.26572
G1 X150.397 Y130.591 E6.28303
G1 X149.974 Y131.175 E6.29584
G1 X149.489 Y131.709 E6.30867
G1 X148.948 Y132.187 E6.3215
G1 X148.629 Y132.422 E6.32854
G1 X147.813 Y132.988 E6.3462
G1 X147.199 Y133.366 E6.35901
G1 X146.546 Y133.673 E6.37184
G1 X145.863 Y133.906 E6.38467
G1 X145.437 Y134.011 E6.39247
G1 X144.467 Y134.214 E6.41008
G1 X143.753 Y134.322 E6.42292
G1 X143.133 Y134.352 E6.43395
G1 X89.888 Y134.354 E7.38044
G1 X89.168 Y134.314 E7.39325
G1 X88.629 Y134.231 E7.40295
G1 X87.68 Y134.044 E7.42014
G1 X86.981 Y133.866 E7.43296
G1 X86.307 Y133.611 E7.44577
G1 X85.363 Y133.097 E7.46488
G1 X84.549 Y132.562 E7.4822
G1 X83.969 Y132.133 E7.49502
G1 X83.441 Y131.643 E7.50782
G1 X82.969 Y131.097 E7.52065
G1 X82.742 Y130.784 E7.52753
G1 X82.21 Y130.002 E7.54434
G1 X81.838 Y129.384 E7.55716
G1 X81.537 Y128.728 E7.56999
G1 X81.233 Y127.728 E7.58857
G1 X81.023 Y126.766 E7.60607
G1 X80.908 Y126.054 E7.61889
G1 X80.873 Y125.385 E7.6308
G1 X80.865 Y117.676 E7.76784
G1 X80.904 Y116.955 E7.78067
G1 X80.985 Y116.424 E7.79022
G1 X81.165 Y115.5 E7.80696
G1 X81.342 Y114.801 E7.81977
G1 X81.462 Y114.481 E7.82585
G1 X81.233 Y113.728 E7.83984
G1 X81.023 Y112.766 E7.85734
G1 X80.908 Y112.054 E7.87016
G1 X80.873 Y111.385 E7.88207
G1 X80.865 Y103.676 E8.01911
G1 X80.904 Y102.955 E8.03194
G1 X80.985 Y102.423 E8.04151
G1 X81.165 Y101.5 E8.05822
G1 X81.342 Y100.801 E8.07104
G1 X81.462 Y100.481 E8.07712
G1 X81.233 Y99.728 E8.09111
G1 X81.023 Y98.766 E8.10861
G1 X80.908 Y98.054 E8.12143
G1 X80.873 Y97.385 E8.13334
G1 X80.865 Y89.676 E8.27037
G1 X80.904 Y88.955 E8.28321
G1 X80.985 Y88.423 E8.29277
G1 X81.165 Y87.5 E8.30949
G1 X81.342 Y86.801 E8.32231
G1 X81.596 Y86.125 E8.33515
G1 X82.075 Y85.231 E8.35317
G1 X82.601 Y84.411 E8.37049
G1 X83.024 Y83.826 E8.38332
G1 X83.509 Y83.292 E8.39615
M204 S625
M205 X6 Y6
G0 F3750 X83.836 Y83.559
M204 S500
M205 X5 Y5
G1 F1200 X84.611 Y82.921 E8.41399
G1 X85.426 Y82.356 E8.43162
G1 X86.022 Y81.992 E8.44403
G1 X86.655 Y81.699 E8.45643
G1 X87.65 Y81.4 E8.4749
G1 X88.621 Y81.197 E8.49253
G1 X89.311 Y81.093 E8.50494
G1 X89.867 Y81.068 E8.51483
G1 X143.112 Y81.066 E9.46131
G1 X143.808 Y81.106 E9.47371
G1 X144.289 Y81.181 E9.48236
G1 X145.238 Y81.368 E9.49955
G1 X145.914 Y81.542 E9.51196
G1 X146.565 Y81.792 E9.52436
G1 X147.403 Y82.252 E9.54135
G1 X148.218 Y82.787 E9.55868
G1 X148.778 Y83.203 E9.57108
G1 X149.288 Y83.68 E9.5835
G1 X149.912 Y84.454 E9.60117
G1 X150.443 Y85.235 E9.61796
G1 X150.802 Y85.833 E9.63035
G1 X151.09 Y86.469 E9.64277
G1 X151.357 Y87.361 E9.65932
G1 X151.567 Y88.324 E9.67684
G1 X151.677 Y89.014 E9.68926
G1 X151.707 Y89.616 E9.69997
G1 X151.715 Y97.325 E9.83701
G1 X151.676 Y98.021 E9.8494
G1 X151.602 Y98.497 E9.85796
G1 X151.422 Y99.42 E9.87468
G1 X151.25 Y100.096 E9.88708
G1 X151.098 Y100.495 E9.89467
G1 X151.357 Y101.361 E9.91073
G1 X151.567 Y102.324 E9.92826
G1 X151.677 Y103.014 E9.94068
G1 X151.707 Y103.616 E9.95139
G1 X151.715 Y111.325 E10.08842
G1 X151.676 Y112.021 E10.10082
G1 X151.602 Y112.497 E10.10938
G1 X151.422 Y113.42 E10.1261
G1 X151.25 Y114.096 E10.1385
G1 X151.097 Y114.495 E10.14609
G1 X151.357 Y115.361 E10.16216
G1 X151.567 Y116.324 E10.17968
G1 X151.677 Y117.014 E10.1921
G1 X151.707 Y117.616 E10.20282
G1 X151.715 Y125.325 E10.33985
G1 X151.676 Y126.021 E10.35225
G1 X151.602 Y126.497 E10.36081
G1 X151.422 Y127.42 E10.37753
G1 X151.25 Y128.096 E10.38992
G1 X151.001 Y128.748 E10.40233
G1 X150.569 Y129.545 E10.41845
G1 X150.043 Y130.364 E10.43575
G1 X149.633 Y130.928 E10.44814
G1 X149.161 Y131.442 E10.46055
G1 X148.39 Y132.077 E10.4783
G1 X147.574 Y132.643 E10.49596
G1 X146.979 Y133.007 E10.50836
G1 X146.346 Y133.301 E10.52076
G1 X145.35 Y133.6 E10.53925
G1 X144.38 Y133.803 E10.55686
G1 X143.69 Y133.906 E10.56926
G1 X143.133 Y133.932 E10.57918
G1 X89.888 Y133.934 E11.52566
G1 X89.192 Y133.894 E11.53805
G1 X88.711 Y133.819 E11.5467
G1 X87.762 Y133.632 E11.5639
G1 X87.086 Y133.458 E11.57631
G1 X86.435 Y133.208 E11.5887
G1 X85.594 Y132.746 E11.60576
G1 X84.78 Y132.211 E11.62307
G1 X84.22 Y131.795 E11.63548
G1 X83.711 Y131.318 E11.64788
G1 X83.09 Y130.548 E11.66546
G1 X82.558 Y129.766 E11.68227
G1 X82.199 Y129.167 E11.69469
G1 X81.911 Y128.532 E11.70708
G1 X81.643 Y127.639 E11.72365
G1 X81.433 Y126.677 E11.74116
G1 X81.324 Y125.988 E11.75356
G1 X81.293 Y125.384 E11.76431
G1 X81.285 Y117.675 E11.90134
G1 X81.324 Y116.979 E11.91373
G1 X81.397 Y116.505 E11.92226
G1 X81.577 Y115.581 E11.93899
G1 X81.75 Y114.904 E11.95141
G1 X81.903 Y114.504 E11.95903
G1 X81.643 Y113.639 E11.97508
G1 X81.433 Y112.677 E11.99259
G1 X81.324 Y111.988 E12.00499
G1 X81.293 Y111.384 E12.01574
G1 X81.285 Y103.675 E12.15277
G1 X81.324 Y102.979 E12.16516
G1 X81.398 Y102.503 E12.17373
G1 X81.578 Y101.58 E12.19044
G1 X81.75 Y100.904 E12.20284
G1 X81.903 Y100.504 E12.21045
G1 X81.643 Y99.639 E12.22651
G1 X81.433 Y98.677 E12.24401
G1 X81.324 Y97.988 E12.25641
G1 X81.293 Y97.384 E12.26716
G1 X81.285 Y89.675 E12.4042
G1 X81.324 Y88.979 E12.41659
G1 X81.398 Y88.503 E12.42515
G1 X81.578 Y87.58 E12.44187
G1 X81.75 Y86.904 E12.45427
G1 X81.999 Y86.252 E12.46668
G1 X82.429 Y85.458 E12.48273
G1 X82.955 Y84.638 E12.50004
G1 X83.365 Y84.073 E12.51245
G1 X83.836 Y83.559 E12.52485
M204 S625
M205 X6 Y6
G0 F3750 X84.163 Y83.827
M204 S500
M205 X5 Y5
G1 F1200 X84.851 Y83.266 E12.54063
G1 X85.666 Y82.701 E12.55826
G1 X86.241 Y82.351 E12.57022
G1 X86.853 Y82.072 E12.58218
G1 X87.736 Y81.811 E12.59854
G1 X88.707 Y81.608 E12.61618
G1 X89.373 Y81.51 E12.62814
G1 X89.867 Y81.488 E12.63693
G1 X143.112 Y81.486 E13.58342
G1 X143.784 Y81.526 E13.59538
G1 X144.208 Y81.593 E13.60301
G1 X145.157 Y81.78 E13.62021
G1 X145.809 Y81.949 E13.63218
G1 X146.436 Y82.194 E13.64415
G1 X147.173 Y82.603 E13.65913
G1 X147.988 Y83.138 E13.67646
G1 X148.527 Y83.54 E13.68841
G1 X149.016 Y84.004 E13.7004
G1 X149.565 Y84.69 E13.71601
G1 X150.096 Y85.471 E13.7328
G1 X150.441 Y86.049 E13.74477
G1 X150.715 Y86.664 E13.75674
G1 X150.947 Y87.451 E13.77132
G1 X151.157 Y88.414 E13.78884
G1 X151.261 Y89.079 E13.80081
G1 X151.287 Y89.616 E13.81036
G1 X151.295 Y97.325 E13.9474
G1 X151.256 Y97.997 E13.95936
G1 X151.19 Y98.416 E13.9669
G1 X151.01 Y99.339 E13.98362
G1 X150.842 Y99.991 E13.99559
G1 X150.643 Y100.503 E14.00535
G1 X150.715 Y100.664 E14.00849
G1 X150.947 Y101.451 E14.02307
G1 X151.157 Y102.414 E14.04059
G1 X151.261 Y103.079 E14.05256
G1 X151.287 Y103.616 E14.06211
G1 X151.295 Y111.325 E14.19915
G1 X151.256 Y111.997 E14.21112
G1 X151.19 Y112.416 E14.21866
G1 X151.01 Y113.339 E14.23537
G1 X150.842 Y113.991 E14.24734
G1 X150.643 Y114.503 E14.2571
G1 X150.714 Y114.663 E14.26022
G1 X150.947 Y115.451 E14.27482
G1 X151.157 Y116.414 E14.29234
G1 X151.261 Y117.079 E14.30431
G1 X151.287 Y117.616 E14.31387
G1 X151.295 Y125.325 E14.4509
G1 X151.256 Y125.997 E14.46287
G1 X151.19 Y126.416 E14.47041
G1 X151.01 Y127.339 E14.48712
G1 X150.842 Y127.991 E14.49909
G1 X150.598 Y128.619 E14.51107
G1 X150.216 Y129.318 E14.52523
G1 X149.69 Y130.137 E14.54253
G1 X149.293 Y130.681 E14.5545
G1 X148.835 Y131.174 E14.56646
G1 X148.151 Y131.732 E14.58215
G1 X147.335 Y132.298 E14.59981
G1 X146.76 Y132.648 E14.61177
G1 X146.147 Y132.928 E14.62375
G1 X145.264 Y133.189 E14.64012
G1 X144.294 Y133.392 E14.65774
G1 X143.628 Y133.49 E14.6697
G1 X143.133 Y133.512 E14.67851
G1 X89.888 Y133.514 E15.62499
G1 X89.216 Y133.474 E15.63696
G1 X88.792 Y133.407 E15.64459
G1 X87.843 Y133.22 E15.66178
G1 X87.191 Y133.051 E15.67376
G1 X86.564 Y132.806 E15.68572
G1 X85.825 Y132.395 E15.70075
G1 X85.011 Y131.86 E15.71807
G1 X84.471 Y131.458 E15.73004
G1 X83.983 Y130.994 E15.74201
G1 X83.437 Y130.311 E15.75755
G1 X82.905 Y129.529 E15.77436
G1 X82.56 Y128.951 E15.78633
G1 X82.286 Y128.336 E15.7983
G1 X82.053 Y127.549 E15.81289
G1 X81.843 Y126.587 E15.83039
G1 X81.739 Y125.922 E15.84235
G1 X81.713 Y125.384 E15.85193
G1 X81.705 Y117.675 E15.98896
G1 X81.744 Y117.003 E16.00093
G1 X81.81 Y116.585 E16.00845
G1 X81.99 Y115.661 E16.02518
G1 X82.157 Y115.009 E16.03715
G1 X82.357 Y114.495 E16.04695
G1 X82.286 Y114.336 E16.05005
G1 X82.053 Y113.549 E16.06464
G1 X81.843 Y112.587 E16.08214
G1 X81.739 Y111.922 E16.09411
G1 X81.713 Y111.384 E16.10368
G1 X81.705 Y103.675 E16.24072
G1 X81.744 Y103.003 E16.25268
G1 X81.81 Y102.584 E16.26022
G1 X81.99 Y101.661 E16.27694
G1 X82.158 Y101.009 E16.28891
G1 X82.357 Y100.496 E16.29869
G1 X82.286 Y100.336 E16.3018
G1 X82.053 Y99.549 E16.31639
G1 X81.843 Y98.587 E16.33389
G1 X81.739 Y97.922 E16.34586
G1 X81.713 Y97.384 E16.35543
G1 X81.705 Y89.675 E16.49247
G1 X81.744 Y89.003 E16.50443
G1 X81.81 Y88.584 E16.51197
G1 X81.99 Y87.661 E16.52869
G1 X82.158 Y87.009 E16.54066
G1 X82.402 Y86.381 E16.55263
G1 X82.782 Y85.685 E16.56673
G1 X83.308 Y84.865 E16.58405
G1 X83.705 Y84.321 E16.59602
G1 X84.163 Y83.827 E16.60799
M204 S625
M205 X6 Y6
G0 F3750 X84.489 Y84.097
M204 S500
M205 X5 Y5
G1 F1200 X85.09 Y83.611 E16.62173
G1 X85.905 Y83.046 E16.63936
G1 X86.459 Y82.711 E16.65087
G1 X87.05 Y82.446 E16.66238
G1 X87.822 Y82.222 E16.67667
G1 X88.793 Y82.019 E16.6943
G1 X89.434 Y81.926 E16.70582
G1 X89.867 Y81.908 E16.71352
G1 X143.112 Y81.906 E17.66
G1 X143.758 Y81.946 E17.67151
G1 X144.127 Y82.005 E17.67815
G1 X145.076 Y82.192 E17.69535
G1 X145.703 Y82.356 E17.70687
G1 X146.304 Y82.596 E17.71837
G1 X146.942 Y82.954 E17.73137
G1 X147.757 Y83.489 E17.7487
G1 X148.276 Y83.877 E17.76022
G1 X148.742 Y84.326 E17.77173
G1 X149.218 Y84.926 E17.78534
G1 X149.749 Y85.707 E17.80213
G1 X150.079 Y86.264 E17.81364
G1 X150.338 Y86.858 E17.82516
G1 X150.536 Y87.54 E17.83778
G1 X150.746 Y88.503 E17.8553
G1 X150.845 Y89.144 E17.86683
G1 X150.867 Y89.617 E17.87525
G1 X150.875 Y97.326 E18.01228
G1 X150.836 Y97.972 E18.02379
G1 X150.778 Y98.336 E18.03034
G1 X150.598 Y99.259 E18.04705
